X:1
T:Blue Bells of Scotland
C:Traditional
M:4/4
L:1/4
Q:1/4=88
K:D
A|d2 fe|d2 cB|A2 Bc|d3 A|
B2 AF|G2 FE|D2 EF|G3 A|
d2 fe|d2 cB|A2 Bc|d3 e|
f2 ed|c2 BA|B2 AG|D4|]
